X: 21215
P: Le soupir de l'absence.
M: 2/4
L: 1/16
K: G
[|\
"^>"e4 egfe | d2Bc d4 | c2AB c4 | B2GA Bcd^d |\
"^>"e4 egfe | d2Bc d2ed | ^cdef gABc d2f2d2 "^D.C."z2 |]


